build/img/four_benefits/slider/2/num.svg

<svg width="80" height="80" viewBox="0 0 80 80" fill="none" xmlns="http://www.w3.org/2000/svg">
<g clip-path="url(#clip0_2_526)">
<path fill-rule="evenodd" clip-rule="evenodd" d="M32.8133 0.32351C50.1855 -1.01986 70.4029 1.25978 76.8945 17.9704C84.5083 37.5696 77.7115 60.7266 60.9975 72.8747C44.9727 84.5218 22.929 81.1793 8.04953 68.0083C-4.02564 57.3196 -0.392051 38.8825 5.23157 23.512C9.86627 10.8443 19.7478 1.33384 32.8133 0.32351Z" fill="#EF7F1A"/>
<path d="M32.2 47.216C30.232 47.216 28.728 46.472 27.688 44.984C26.664 43.48 26.152 41.328 26.152 38.528C26.152 36.624 26.384 35.032 26.848 33.752C27.312 32.472 27.992 31.504 28.888 30.848C29.784 30.192 30.888 29.864 32.2 29.864C34.184 29.864 35.688 30.6 36.712 32.072C37.736 33.528 38.248 35.672 38.248 38.504C38.248 40.376 38.016 41.96 37.552 43.256C37.088 44.552 36.408 45.536 35.512 46.208C34.616 46.88 33.512 47.216 32.2 47.216ZM32.2 45.152C33.432 45.152 34.336 44.616 34.912 43.544C35.504 42.456 35.8 40.776 35.8 38.504C35.8 36.216 35.504 34.552 34.912 33.512C34.336 32.456 33.432 31.928 32.2 31.928C30.984 31.928 30.08 32.456 29.488 33.512C28.896 34.552 28.6 36.216 28.6 38.504C28.6 40.776 28.896 42.456 29.488 43.544C30.08 44.616 30.984 45.152 32.2 45.152ZM42.5346 47C42.1026 47 41.7906 46.904 41.5986 46.712C41.4066 46.504 41.3106 46.224 41.3106 45.872C41.3106 45.648 41.3666 45.432 41.4786 45.224C41.5906 45.016 41.7506 44.8 41.9586 44.576L47.0706 39.104C47.8546 38.272 48.4146 37.512 48.7506 36.824C49.1026 36.12 49.2786 35.416 49.2786 34.712C49.2786 33.816 49.0066 33.136 48.4626 32.672C47.9186 32.208 47.1186 31.976 46.0626 31.976C45.4226 31.976 44.8066 32.072 44.2146 32.264C43.6226 32.456 43.0306 32.768 42.4386 33.2C42.1986 33.36 41.9746 33.432 41.7666 33.416C41.5586 33.4 41.3746 33.32 41.2146 33.176C41.0706 33.032 40.9746 32.856 40.9266 32.648C40.8786 32.44 40.8866 32.224 40.9506 32C41.0146 31.776 41.1666 31.584 41.4066 31.424C42.0626 30.928 42.8226 30.544 43.6866 30.272C44.5506 30 45.4306 29.864 46.3266 29.864C47.4946 29.864 48.4786 30.048 49.2786 30.416C50.0946 30.768 50.7106 31.288 51.1266 31.976C51.5426 32.664 51.7506 33.504 51.7506 34.496C51.7506 35.168 51.6386 35.824 51.4146 36.464C51.2066 37.104 50.8786 37.76 50.4306 38.432C49.9986 39.088 49.4306 39.784 48.7266 40.52L43.8786 45.608L43.8786 44.912L51.5106 44.912C51.8626 44.912 52.1346 45 52.3266 45.176C52.5186 45.352 52.6146 45.608 52.6146 45.944C52.6146 46.28 52.5186 46.544 52.3266 46.736C52.1346 46.912 51.8626 47 51.5106 47L42.5346 47Z" fill="white"/>
</g>
<defs>
<clipPath id="clip0_2_526">
<rect width="80" height="80" fill="white"/>
</clipPath>
</defs>
</svg>

<svg width="80" height="80" fill="none" xmlns="http://www.w3.org/2000/svg"><g clip-path="url(#a)"><path fill-rule="evenodd" clip-rule="evenodd" d="M32.813.324c17.372-1.344 37.59.936 44.081 17.646 7.614 19.6.817 42.757-15.897 54.905C44.974 84.522 22.93 81.179 8.05 68.008-4.026 57.32-.392 38.883 5.232 23.512 9.866 10.844 19.748 1.334 32.813.324Z" fill="#EF7F1A"/><path d="M32.2 47.216c-1.968 0-3.472-.744-4.512-2.232-1.024-1.504-1.536-3.656-1.536-6.456 0-1.904.232-3.496.696-4.776.464-1.28 1.144-2.248 2.04-2.904.896-.656 2-.984 3.312-.984 1.984 0 3.488.736 4.512 2.208 1.024 1.456 1.536 3.6 1.536 6.432 0 1.872-.232 3.456-.696 4.752-.464 1.296-1.144 2.28-2.04 2.952-.896.672-2 1.008-3.312 1.008Zm0-2.064c1.232 0 2.136-.536 2.712-1.608.592-1.088.888-2.768.888-5.04 0-2.288-.296-3.952-.888-4.992-.576-1.056-1.48-1.584-2.712-1.584-1.216 0-2.12.528-2.712 1.584-.592 1.04-.888 2.704-.888 4.992 0 2.272.296 3.952.888 5.04.592 1.072 1.496 1.608 2.712 1.608ZM42.535 47c-.432 0-.744-.096-.936-.288-.192-.208-.288-.488-.288-.84 0-.224.056-.44.168-.648.112-.208.272-.424.48-.648l5.112-5.472c.784-.832 1.344-1.592 1.68-2.28.352-.704.528-1.408.528-2.112 0-.896-.272-1.576-.816-2.04-.544-.464-1.344-.696-2.4-.696-.64 0-1.256.096-1.848.288-.592.192-1.184.504-1.776.936-.24.16-.464.232-.672.216a.91.91 0 0 1-.552-.24 1.07 1.07 0 0 1-.288-.528A1.28 1.28 0 0 1 40.95 32c.064-.224.216-.416.456-.576a7.456 7.456 0 0 1 2.28-1.152 8.742 8.742 0 0 1 2.64-.408c1.168 0 2.152.184 2.952.552.816.352 1.432.872 1.848 1.56.416.688.624 1.528.624 2.52 0 .672-.112 1.328-.336 1.968-.208.64-.536 1.296-.984 1.968-.432.656-1 1.352-1.704 2.088l-4.848 5.088v-.696h7.632c.352 0 .624.088.816.264.192.176.288.432.288.768s-.096.6-.288.792c-.192.176-.464.264-.816.264h-8.976Z" fill="#fff"/></g><defs><clipPath id="a"><path fill="#fff" d="M0 0h80v80H0z"/></clipPath></defs></svg>
